TF1/canv.svg

<svg xmlns="http://www.w3.org/2000/svg" viewBox="0 0 1200 800" preserveAspectRatio="none" width="1200" height="800">
 <title>
  ROOT canvas
 </title>
 <rect x="0" y="0" width="1200" height="800" style="fill: white;"></rect>
 <g>
  <g transform="translate(120,80)">
   <title></title>
   <rect x="0" y="0" width="960" height="640" style="fill: white; stroke: black; stroke-width: 1;"></rect>
   <svg x="0" y="0" overflow="hidden" width="960" height="640" viewBox="0 0 960 640">
    <g>
     <path d="M115,639h10M120,638v2M154,639h10M159,638v2M163,639h10M168,638v2M173,639h10M178,638v2M182,636h10M187,634v4M192,636h10M197,634v4M202,634h10M207,631v5M211,636h10M216,634v4M221,623h10M226,619v8M230,625h10M235,621v8M240,614h10M245,609v11M250,618h10M255,613v9M259,575h10M264,566v17M269,560h10M274,550v19M278,561h10M283,552v18M288,537h10M293,527v21M298,532h10M303,521v22M307,479h10M312,466v27M317,453h10M322,438v29M326,400h10M331,384v32M336,388h10M341,372v33M346,350h10M351,332v36M355,315h10M360,296v37M365,260h10M370,240v40M374,210h10M379,188v43M384,156h10M389,133v46M394,164h10M399,141v45M403,138h10M408,115v46M413,144h10M418,121v46M422,55h10M427,30v51M432,133h10M437,109v47M442,130h10M447,107v47M451,130h10M456,107v47M461,151h10M466,128v46M470,164h10M475,141v45M480,235h10M485,215v41M490,230h10M495,209v42M499,292h10M504,273v38M509,322h10M514,304v37M518,372h10M523,355v34M528,394h10M533,378v32M538,461h10M543,447v28M547,482h10M552,469v26M557,535h10M562,524v22M566,542h10M571,531v21M576,563h10M581,554v18M586,578h10M591,570v16M595,595h10M600,588v14M605,598h10M610,592v13M614,616h10M619,611v10M624,613h10M629,608v11M634,616h10M639,611v10M643,629h10M648,626v7M653,636h10M658,634v4M662,636h10M667,634v4M672,637h10M677,635v4M682,637h10M687,635v4M691,638h10M696,636v3M701,639h10M706,638v2M710,639h10M715,638v2M758,639h10M763,638v2" style="stroke: blue; stroke-width: 2;"></path>
    </g>
    <g>
     <path d="M0,640c1.6,0,6.4,0,9.6,0s6.4,0,9.6,0s6.4,0,9.6,0s6.4,0,9.6,0s6.4,0,9.6,0s6.4,0,9.6,0s6.4,0,9.6,0s6.4,0,9.6,0s6.4,0,9.6,-0.01s6.4,-0.01,9.6,-0.01s6.4,-0.01,9.6,-0.02s6.4,-0.02,9.6,-0.03s6.4,-0.03,9.6,-0.06s6.4,-0.05,9.6,-0.09s6.4,-0.08,9.6,-0.15s6.4,-0.13,9.6,-0.23s6.41,-0.21,9.6,-0.36s6.42,-0.32,9.6,-0.54s6.43,-0.48,9.6,-0.8s6.47,-0.71,9.6,-1.17s6.54,-1.04,9.6,-1.68s6.66,-1.5,9.6,-2.37s6.85,-2.17,9.6,-3.29s7.13,-3.13,9.6,-4.47s7.49,-4.46,9.6,-5.97s7.89,-6.24,9.6,-7.84s8.27,-8.51,9.6,-10.09s8.6,-11.27,9.6,-12.75s8.86,-14.45,9.6,-15.8s9.05,-17.99,9.6,-19.2s9.18,-21.79,9.6,-22.87s9.28,-25.72,9.6,-26.68s9.34,-29.59,9.6,-30.47s9.38,-33.22,9.6,-34.03s9.41,-36.36,9.6,-37.11s9.43,-38.76,9.6,-39.49s9.43,-40.18,9.6,-40.89s9.43,-40.4,9.6,-41.11s9.41,-39.22,9.6,-39.97s9.38,-36.55,9.6,-37.36s9.31,-32.35,9.6,-33.26s9.17,-26.66,9.6,-27.76s8.84,-19.65,9.6,-21.02s7.92,-11.71,9.6,-13.31s6.42,-4.75,9.6,-4.98s7.67,2.02,9.6,3.59s8.75,10.57,9.6,11.99s9.13,18.69,9.6,19.82s9.3,25.8,9.6,26.74s9.37,31.64,9.6,32.46s9.41,36.04,9.6,36.79s9.43,38.93,9.6,39.65s9.43,40.31,9.6,41.02s9.43,40.3,9.6,41.02s9.41,39.04,9.6,39.79s9.39,36.76,9.6,37.56s9.35,33.7,9.6,34.57s9.29,30.12,9.6,31.07s9.2,26.25,9.6,27.3s9.07,22.3,9.6,23.48s8.89,18.46,9.6,19.78s8.65,14.87,9.6,16.33s8.33,11.65,9.6,13.22s7.96,8.89,9.6,10.49s7.55,6.64,9.6,8.18s7.18,4.87,9.6,6.25s6.89,3.54,9.6,4.69s6.68,2.55,9.6,3.46s6.55,1.82,9.6,2.5s6.48,1.29,9.6,1.78s6.44,0.9,9.6,1.24s6.42,0.62,9.6,0.85s6.41,0.42,9.6,0.58s6.4,0.28,9.6,0.38s6.4,0.18,9.6,0.25s6.4,0.12,9.6,0.16s6.4,0.07,9.6,0.1s6.4,0.05,9.6,0.06s6.4,0.03,9.6,0.04s6.4,0.02,9.6,0.02s6.4,0.01,9.6,0.01s6.4,0.01,9.6,0.01s6.4,0,9.6,0s6.4,0,9.6,0s6.4,0,9.6,0s6.4,0,9.6,0s6.4,0,9.6,0s6.4,0,9.6,0s6.4,0,9.6,0s6.4,0,9.6,0s6.4,0,9.6,0s6.4,0,9.6,0s6.4,0,9.6,0s6.4,0,9.6,0s6.4,0,9.6,0s6.4,0,9.6,0s6.4,0,9.6,0s6.4,0,9.6,0s6.4,0,9.6,0s8,0,9.6,0" style="fill: none; stroke: rgb(153,153,204); stroke-width: 3;"></path>
    </g>
    <g>
     <path d="M0,640h48v-2h10v2h19v-1h9v1h10v-1h10v1h9v-2h10v1h9v-1h10v-1h29v-1h9v-8h10v2h10v-2h9v-2h10v-3h9v-2h10v6h10v-23h9v8h10v-18h9v-1h10v-2h10v-10h9v-7h10v-28h9v-8h10v-11h10v-17h9v4h10v-25h9v11h10v-42h10v-15h9v2h10v-38h9v-28h10v-22h10v29h9v11h10v-46h9v-27h10v-19h10v27h9v-30h10v36h9v-26h10v-15h10v22h9v15h10v-15h9v18h10v19h10v4h9v-2h10v11h9v23h10v5h10v27h9v-2h10v45h9v3h10v-16h10v23h9v22h10v15h9v30h10v6h10v13h9v10h10v9h9v-4h10v19h10v-5h9v21h10v-3h9v2h10v-1h10v13h9v6h10v1h9v6h10v-2h19v-4h10v5h9v3h10v-1h10v-1h38" style="stroke-linejoin: miter; stroke: red; stroke-width: 2; fill: none;"></path>
    </g>
   </svg>
   <g>
    <g transform="translate(0,640)">
     <line x1="0" y1="0" x2="960" y2="0" style="stroke: black; stroke-width: 1;"></line>
     <path d="M0,-12v12m48,-12v12m48,-24v24m48,-12v12m48,-12v12m48,-12v12m48,-24v24m48,-12v12m48,-12v12m48,-12v12m48,-24v24m48,-12v12m48,-12v12m48,-12v12m48,-24v24m48,-12v12m48,-12v12m48,-12v12m48,-24v24m48,-12v12m48,-12v12" style="stroke: black; stroke-width: 1;"></path>
     <g font-family="Arial" font-size="28" space="preserve">
      <text fill="black" text-anchor="middle" dy=".8em" transform="translate(96,6)">
       -4
      </text>
      <text fill="black" text-anchor="middle" dy=".8em" transform="translate(288,6)">
       -2
      </text>
      <text fill="black" text-anchor="middle" dy=".8em" transform="translate(480,6)">
       0
      </text>
      <text fill="black" text-anchor="middle" dy=".8em" transform="translate(672,6)">
       2
      </text>
      <text fill="black" text-anchor="middle" dy=".8em" transform="translate(864,6)">
       4
      </text>
     </g>
     <g font-family="Arial" font-size="28" space="preserve" transform="translate(960,45)">
      <text fill="black" text-anchor="end" dy=".4em">
       Random numbers
      </text>
     </g>
    </g>
    <g>
     <line x1="0" y1="0" x2="0" y2="640" style="stroke: black; stroke-width: 1;"></line>
     <path d="M36,640h-36m18,-21h-18m18,-22h-18m18,-21h-18m18,-22h-18m36,-21h-36m18,-21h-18m18,-22h-18m18,-21h-18m18,-22h-18m36,-21h-36m18,-22h-18m18,-21h-18m18,-21h-18m18,-22h-18m36,-21h-36m18,-22h-18m18,-21h-18m18,-21h-18m18,-22h-18m36,-21h-36m18,-22h-18m18,-21h-18m18,-21h-18m18,-22h-18m36,-21h-36m18,-22h-18m18,-21h-18m18,-21h-18m18,-22h-18" style="stroke: black; stroke-width: 1;"></path>
     <g font-family="Arial" font-size="28" space="preserve">
      <text fill="black" text-anchor="end" dy=".4em" transform="translate(-4,640)">
       0
      </text>
      <text fill="black" text-anchor="end" dy=".4em" transform="translate(-4,533)">
       100
      </text>
      <text fill="black" text-anchor="end" dy=".4em" transform="translate(-4,426)">
       200
      </text>
      <text fill="black" text-anchor="end" dy=".4em" transform="translate(-4,319)">
       300
      </text>
      <text fill="black" text-anchor="end" dy=".4em" transform="translate(-4,212)">
       400
      </text>
      <text fill="black" text-anchor="end" dy=".4em" transform="translate(-4,105)">
       500
      </text>
     </g>
     <g font-family="Arial" font-size="28" space="preserve" transform="translate(-67,0)">
      <text fill="black" text-anchor="end" dy=".4em" transform=" rotate(270)">
       Frequency
      </text>
     </g>
    </g>
   </g>
  </g>
  <g transform="translate(180,120)" font-family="Arial" font-size="15" space="preserve">
   <path d="M0,0h276v120h-276z" style="fill: white; stroke: white; stroke-width: 1;"></path>
   <line x1="8" y1="23" x2="61" y2="23" style="stroke: blue; stroke-width: 2;"></line>
   <text fill="black" text-anchor="start" dy=".4em" transform="translate(69,23)">
    Gaussian (//mu = -0.5)
   </text>
   <line x1="8" y1="60" x2="61" y2="60" style="stroke: rgb(153,153,204); stroke-width: 3;"></line>
   <text fill="black" text-anchor="start" dy=".4em" transform="translate(69,60)">
    Fit with Gaussian to x
   </text>
   <line x1="8" y1="97" x2="61" y2="97" style="stroke: red; stroke-width: 2;"></line>
   <text fill="black" text-anchor="start" dy=".4em" transform="translate(69,98)">
    Gaussian (//mu = +0.5)
   </text>
  </g>
  <g transform="translate(354,4)" font-family="Arial" font-size="27" space="preserve">
   <path d="M0,0h493v44h-493z" style="fill: none;"></path>
   <text fill="black" text-anchor="middle" dy=".4em" transform="translate(247,22)">
    Distribution of Gaussian numbers
   </text>
  </g>
  <g transform="translate(672,64)" font-family="Arial" font-size="30" space="preserve">
   <path d="M0,0h432v288h-432z" style="fill: white; stroke: black; stroke-width: 1;"></path>
   <text fill="black" text-anchor="start" dy=".4em" transform="translate(22,18)">
    Entries
   </text>
   <text fill="black" text-anchor="end" dy=".4em" transform="translate(410,18)">
    10000
   </text>
   <text fill="black" text-anchor="start" dy=".4em" transform="translate(22,54)">
    Mean
   </text>
   <text fill="black" text-anchor="end" dy=".4em" transform="translate(410,54)">
    -0.4938
   </text>
   <text fill="black" text-anchor="start" dy=".4em" transform="translate(22,90)">
    Std Dev
   </text>
   <text fill="black" text-anchor="end" dy=".4em" transform="translate(410,90)">
    0.7973
   </text>
   <text fill="black" text-anchor="start" transform="translate(22,141)">
    χ^2 / ndf
   </text>
   <text fill="black" text-anchor="end" dy=".4em" transform="translate(410,126)">
    60.68 / 58
   </text>
   <text fill="black" text-anchor="start" dy=".4em" transform="translate(22,162)">
    Prob
   </text>
   <text fill="black" text-anchor="end" dy=".4em" transform="translate(410,162)">
    0.3793
   </text>
   <text fill="black" text-anchor="start" dy=".4em" transform="translate(22,198)">
    Constant
   </text>
   <text fill="black" text-anchor="start" transform="translate(217,213)">
    501.9 ± 6.2
   </text>
   <text fill="black" text-anchor="start" dy=".4em" transform="translate(22,234)">
    Mean
   </text>
   <text fill="black" text-anchor="start" transform="translate(137,249)">
    -0.4919 ± 0.0079
   </text>
   <text fill="black" text-anchor="start" dy=".4em" transform="translate(22,270)">
    Sigma
   </text>
   <text fill="black" text-anchor="start" transform="translate(153,285)">
    0.7902 ± 0.0056
   </text>
  </g>
 </g>
</svg>

<svg xmlns="http://www.w3.org/2000/svg" viewBox="0 0 1200 800" preserveAspectRatio="none" width="1200" height="800">
 <title>
  ROOT canvas
 </title>
 <rect x="0" y="0" width="1200" height="800" style="fill: white;"></rect>
 <g>
  <g transform="translate(120,80)">
   <title></title>
   <rect x="0" y="0" width="960" height="640" style="fill: white; stroke: black; stroke-width: 1;"></rect>
   <svg x="0" y="0" overflow="hidden" width="960" height="640" viewBox="0 0 960 640">
    <g>
     <path d="M115,639h10M120,638v2M154,639h10M159,638v2M163,639h10M168,638v2M173,639h10M178,638v2M182,636h10M187,634v4M192,636h10M197,634v4M202,634h10M207,631v5M211,636h10M216,634v4M221,623h10M226,619v8M230,625h10M235,621v8M240,614h10M245,609v11M250,618h10M255,613v9M259,575h10M264,566v17M269,560h10M274,550v19M278,561h10M283,552v18M288,537h10M293,527v21M298,532h10M303,521v22M307,479h10M312,466v27M317,453h10M322,438v29M326,400h10M331,384v32M336,388h10M341,372v33M346,350h10M351,332v36M355,315h10M360,296v37M365,260h10M370,240v40M374,210h10M379,188v43M384,156h10M389,133v46M394,164h10M399,141v45M403,138h10M408,115v46M413,144h10M418,121v46M422,55h10M427,30v51M432,133h10M437,109v47M442,130h10M447,107v47M451,130h10M456,107v47M461,151h10M466,128v46M470,164h10M475,141v45M480,235h10M485,215v41M490,230h10M495,209v42M499,292h10M504,273v38M509,322h10M514,304v37M518,372h10M523,355v34M528,394h10M533,378v32M538,461h10M543,447v28M547,482h10M552,469v26M557,535h10M562,524v22M566,542h10M571,531v21M576,563h10M581,554v18M586,578h10M591,570v16M595,595h10M600,588v14M605,598h10M610,592v13M614,616h10M619,611v10M624,613h10M629,608v11M634,616h10M639,611v10M643,629h10M648,626v7M653,636h10M658,634v4M662,636h10M667,634v4M672,637h10M677,635v4M682,637h10M687,635v4M691,638h10M696,636v3M701,639h10M706,638v2M710,639h10M715,638v2M758,639h10M763,638v2" style="stroke: blue; stroke-width: 2;"></path>
    </g>
    <g>
     <path d="M0,640C1.6,640,6.4,640,9.6,640S16,640,19.2,640S25.6,640,28.8,640S35.2,640,38.4,640S44.8,640,48,640S54.4,640,57.6,640S64,640,67.2,640S73.6,639.99,76.8,639.99S83.2,639.99,86.4,639.98S92.8,639.98,96,639.97S102.4,639.96,105.6,639.95S112,639.93,115.2,639.92S121.6,639.88,124.8,639.86S131.2,639.81,134.4,639.77S140.8,639.68,144,639.62S150.4,639.48,153.6,639.38S160.01,639.18,163.2,639.03S169.62,638.71,172.8,638.49S179.23,638.01,182.4,637.68S188.87,636.98,192,636.51S198.54,635.48,201.6,634.83S208.26,633.32,211.2,632.46S218.05,630.28,220.8,629.17S227.93,626.04,230.4,624.7S237.89,620.24,240,618.73S247.89,612.49,249.6,610.89S257.87,602.38,259.2,600.8S267.8,589.53,268.8,588.05S277.66,573.6,278.4,572.25S287.45,554.26,288,553.05S297.18,531.26,297.6,530.18S306.88,504.47,307.2,503.5S316.54,473.91,316.8,473.03S326.18,439.81,326.4,439.01S335.81,402.65,336,401.89S345.43,363.13,345.6,362.41S355.03,322.22,355.2,321.51S364.63,281.12,364.8,280.4S374.21,241.18,374.4,240.43S383.78,203.88,384,203.07S393.31,170.72,393.6,169.81S402.77,143.14,403.2,142.05S412.04,122.4,412.8,121.04S420.72,109.33,422.4,107.73S428.82,102.98,432,102.75S439.67,104.77,441.6,106.34S450.35,116.91,451.2,118.33S460.33,137.02,460.8,138.15S470.1,163.95,470.4,164.89S479.77,196.52,480,197.35S489.41,233.38,489.6,234.14S499.03,273.07,499.2,273.79S508.63,314.1,508.8,314.81S518.23,355.11,518.4,355.83S527.81,394.86,528,395.61S537.39,432.37,537.6,433.17S546.95,466.87,547.2,467.73S556.49,497.85,556.8,498.8S566,525.05,566.4,526.11S575.47,548.4,576,549.59S584.89,568.05,585.6,569.37S594.25,584.24,595.2,585.7S603.53,597.35,604.8,598.92S612.76,607.81,614.4,609.41S621.95,616.05,624,617.59S631.18,622.46,633.6,623.84S640.49,627.38,643.2,628.53S649.88,631.08,652.8,631.99S659.35,633.82,662.4,634.5S668.88,635.79,672,636.28S678.44,637.18,681.6,637.52S688.02,638.14,691.2,638.38S697.61,638.79,700.8,638.95S707.2,639.23,710.4,639.34S716.8,639.52,720,639.59S726.4,639.7,729.6,639.75S736,639.82,739.2,639.85S745.6,639.89,748.8,639.91S755.2,639.94,758.4,639.95S764.8,639.96,768,639.97S774.4,639.98,777.6,639.98S784,639.99,787.2,639.99S793.6,639.99,796.8,639.99S803.2,640,806.4,640S812.8,640,816,640S822.4,640,825.6,640S832,640,835.2,640S841.6,640,844.8,640S851.2,640,854.4,640S860.8,640,864,640S870.4,640,873.6,640S880,640,883.2,640S889.6,640,892.8,640S899.2,640,902.4,640S908.8,640,912,640S918.4,640,921.6,640S928,640,931.2,640S937.6,640,940.8,640S947.2,640,950.4,640S958.4,640,960,640" style="fill: none; stroke: rgb(153,153,204); stroke-width: 3;"></path>
    </g>
    <g>
     <path d="M0,640h48v-2h10v2h19v-1h9v1h10v-1h10v1h9v-2h10v1h9v-1h10v-1h29v-1h9v-8h10v2h10v-2h9v-2h10v-3h9v-2h10v6h10v-23h9v8h10v-18h9v-1h10v-2h10v-10h9v-7h10v-28h9v-8h10v-11h10v-17h9v4h10v-25h9v11h10v-42h10v-15h9v2h10v-38h9v-28h10v-22h10v29h9v11h10v-46h9v-27h10v-19h10v27h9v-30h10v36h9v-26h10v-15h10v22h9v15h10v-15h9v18h10v19h10v4h9v-2h10v11h9v23h10v5h10v27h9v-2h10v45h9v3h10v-16h10v23h9v22h10v15h9v30h10v6h10v13h9v10h10v9h9v-4h10v19h10v-5h9v21h10v-3h9v2h10v-1h10v13h9v6h10v1h9v6h10v-2h19v-4h10v5h9v3h10v-1h10v-1h38" style="stroke-linejoin: miter; stroke: red; stroke-width: 2; fill: none;"></path>
    </g>
   </svg>
   <g>
    <g transform="translate(0,640)">
     <line x1="0" y1="0" x2="960" y2="0" style="stroke: black; stroke-width: 1;"></line>
     <path d="M0,-12v12m48,-12v12m48,-24v24m48,-12v12m48,-12v12m48,-12v12m48,-24v24m48,-12v12m48,-12v12m48,-12v12m48,-24v24m48,-12v12m48,-12v12m48,-12v12m48,-24v24m48,-12v12m48,-12v12m48,-12v12m48,-24v24m48,-12v12m48,-12v12" style="stroke: black; stroke-width: 1;"></path>
     <g font-family="Arial" font-size="28" space="preserve">
      <text fill="black" text-anchor="middle" dy=".8em" transform="translate(96,6)">
       -4
      </text>
      <text fill="black" text-anchor="middle" dy=".8em" transform="translate(288,6)">
       -2
      </text>
      <text fill="black" text-anchor="middle" dy=".8em" transform="translate(480,6)">
       0
      </text>
      <text fill="black" text-anchor="middle" dy=".8em" transform="translate(672,6)">
       2
      </text>
      <text fill="black" text-anchor="middle" dy=".8em" transform="translate(864,6)">
       4
      </text>
     </g>
     <g font-family="Arial" font-size="28" space="preserve" transform="translate(960,45)">
      <text fill="black" text-anchor="end" dy=".4em">
       Random numbers
      </text>
     </g>
    </g>
    <g>
     <line x1="0" y1="0" x2="0" y2="640" style="stroke: black; stroke-width: 1;"></line>
     <path d="M36,640h-36m18,-21h-18m18,-22h-18m18,-21h-18m18,-22h-18m36,-21h-36m18,-21h-18m18,-22h-18m18,-21h-18m18,-22h-18m36,-21h-36m18,-22h-18m18,-21h-18m18,-21h-18m18,-22h-18m36,-21h-36m18,-22h-18m18,-21h-18m18,-21h-18m18,-22h-18m36,-21h-36m18,-22h-18m18,-21h-18m18,-21h-18m18,-22h-18m36,-21h-36m18,-22h-18m18,-21h-18m18,-21h-18m18,-22h-18" style="stroke: black; stroke-width: 1;"></path>
     <g font-family="Arial" font-size="28" space="preserve">
      <text fill="black" text-anchor="end" dy=".4em" transform="translate(-4,640)">
       0
      </text>
      <text fill="black" text-anchor="end" dy=".4em" transform="translate(-4,533)">
       100
      </text>
      <text fill="black" text-anchor="end" dy=".4em" transform="translate(-4,426)">
       200
      </text>
      <text fill="black" text-anchor="end" dy=".4em" transform="translate(-4,319)">
       300
      </text>
      <text fill="black" text-anchor="end" dy=".4em" transform="translate(-4,212)">
       400
      </text>
      <text fill="black" text-anchor="end" dy=".4em" transform="translate(-4,105)">
       500
      </text>
     </g>
     <g font-family="Arial" font-size="28" space="preserve" transform="translate(-67,0)">
      <text fill="black" text-anchor="end" dy=".4em" transform=" rotate(270)">
       Frequency
      </text>
     </g>
    </g>
   </g>
  </g>
  <g transform="translate(180,120)" font-family="Arial" font-size="15" space="preserve">
   <path d="M0,0h276v120h-276z" style="fill: white; stroke: white; stroke-width: 1;"></path>
   <line x1="8" y1="23" x2="61" y2="23" style="stroke: blue; stroke-width: 2;"></line>
   <text fill="black" text-anchor="start" dy=".4em" transform="translate(69,23)">
    Gaussian (//mu = -0.5)
   </text>
   <line x1="8" y1="60" x2="61" y2="60" style="stroke: rgb(153,153,204); stroke-width: 3;"></line>
   <text fill="black" text-anchor="start" dy=".4em" transform="translate(69,60)">
    Fit with Gaussian to x
   </text>
   <line x1="8" y1="97" x2="61" y2="97" style="stroke: red; stroke-width: 2;"></line>
   <text fill="black" text-anchor="start" dy=".4em" transform="translate(69,98)">
    Gaussian (//mu = +0.5)
   </text>
  </g>
  <g transform="translate(354,4)" font-family="Arial" font-size="27" space="preserve">
   <path d="M0,0h493v44h-493z" style="fill: none;"></path>
   <text fill="black" text-anchor="middle" dy=".4em" transform="translate(247,22)">
    Distribution of Gaussian numbers
   </text>
  </g>
  <g transform="translate(672,64)" font-family="Arial" font-size="30" space="preserve">
   <path d="M0,0h432v288h-432z" style="fill: white; stroke: black; stroke-width: 1;"></path>
   <text fill="black" text-anchor="start" dy=".4em" transform="translate(22,18)">
    Entries
   </text>
   <text fill="black" text-anchor="end" dy=".4em" transform="translate(410,18)">
    10000
   </text>
   <text fill="black" text-anchor="start" dy=".4em" transform="translate(22,54)">
    Mean
   </text>
   <text fill="black" text-anchor="end" dy=".4em" transform="translate(410,54)">
    -0.4938
   </text>
   <text fill="black" text-anchor="start" dy=".4em" transform="translate(22,90)">
    Std Dev
   </text>
   <text fill="black" text-anchor="end" dy=".4em" transform="translate(410,90)">
    0.7973
   </text>
   <text fill="black" text-anchor="start" transform="translate(22,141)">
    χ^2 / ndf
   </text>
   <text fill="black" text-anchor="end" dy=".4em" transform="translate(410,126)">
    60.68 / 58
   </text>
   <text fill="black" text-anchor="start" dy=".4em" transform="translate(22,162)">
    Prob
   </text>
   <text fill="black" text-anchor="end" dy=".4em" transform="translate(410,162)">
    0.3793
   </text>
   <text fill="black" text-anchor="start" dy=".4em" transform="translate(22,198)">
    Constant
   </text>
   <text fill="black" text-anchor="start" transform="translate(217,213)">
    501.9 ± 6.2
   </text>
   <text fill="black" text-anchor="start" dy=".4em" transform="translate(22,234)">
    Mean
   </text>
   <text fill="black" text-anchor="start" transform="translate(137,249)">
    -0.4919 ± 0.0079
   </text>
   <text fill="black" text-anchor="start" dy=".4em" transform="translate(22,270)">
    Sigma
   </text>
   <text fill="black" text-anchor="start" transform="translate(153,285)">
    0.7902 ± 0.0056
   </text>
  </g>
 </g>
</svg>
